svg/logos/research_logo_pwc.svg

<?xml version="1.0" encoding="UTF-8"?>
<svg width="80px" height="61px" viewBox="0 0 80 61" version="1.1" xmlns="http://www.w3.org/2000/svg" xmlns:xlink="http://www.w3.org/1999/xlink">
    <!-- Generator: Sketch 52.5 (67469) - http://www.bohemiancoding.com/sketch -->
    <title>research_logo_pwc</title>
    <desc>Created with Sketch.</desc>
    <defs>
        <polygon id="path-1" points="0 0.020467685 18.4192932 0.020467685 18.4192932 22.2222055 0 22.2222055"></polygon>
        <polygon id="path-3" points="0.0411133497 0.0615780998 14.8849774 0.0615780998 14.8849774 3.02650564 0.0411133497 3.02650564"></polygon>
        <polygon id="path-5" points="0.0566441224 0.0593463723 3.86679549 0.0593463723 3.86679549 7.52464291 0.0566441224 7.52464291"></polygon>
    </defs>
    <g id="V2" stroke="none" stroke-width="1" fill="none" fill-rule="evenodd">
        <g id="home" transform="translate(-1200.000000, -5105.000000)">
            <g id="whitepaper" transform="translate(0.000000, 5016.000000)">
                <g id="Group-16" transform="translate(768.000000, 80.000000)">
                    <g id="research_logo_pwc" transform="translate(432.000000, 9.000000)">
                        <g id="Group-3" transform="translate(0.000000, 38.521353)">
                            <mask id="mask-2" fill="white">
                                <use xlink:href="#path-1"></use>
                            </mask>
                            <g id="Clip-2"></g>
                            <path d="M7.49286312,8.51511111 C7.49286312,10.1031948 7.50007729,11.6912786 7.48603543,13.2792335 C7.48358776,13.5553688 7.56880515,13.6251272 7.82767794,13.6065121 C8.18027053,13.5811981 8.53685668,13.6097327 8.88899839,13.5813269 C10.6450692,13.4398132 11.9562448,12.6316329 12.5845862,10.9422287 C13.2160193,9.24419324 13.2583382,7.49578744 12.7418808,5.76045733 C12.3622351,4.48490177 11.5180483,3.64335588 10.1864541,3.35073108 C9.33898229,3.16445089 8.50194525,3.28251852 7.66471498,3.44007085 C7.45157488,3.48019968 7.49337842,3.61849275 7.49331401,3.75092432 C7.49254106,5.33900805 7.49279871,6.92702738 7.49286312,8.51511111 M7.49350725,2.05044122 C8.116438,1.69746216 8.67733977,1.36599678 9.25073752,1.05784863 C10.201591,0.546930757 11.1857456,0.153178744 12.290351,0.106093398 C14.2431369,0.0228727858 15.7664863,0.804644122 16.9184348,2.34725282 C18.9322834,5.04412882 19.0464863,10.0106345 16.4826216,12.8695717 C15.0718647,14.4427118 13.2715427,15.2157874 11.2070016,15.4555942 C10.0691594,15.5877681 8.93415137,15.4803929 7.79927214,15.4192657 C7.56339452,15.4065765 7.48513366,15.4430338 7.48738808,15.6987504 C7.50001288,17.1261256 7.49866023,18.553694 7.48796779,19.9811337 C7.48629308,20.2014879 7.5632657,20.2687343 7.76680837,20.3104734 C8.42812882,20.4459968 9.08365217,20.6095395 9.74361997,20.7517617 C9.91895008,20.7895717 9.99405475,20.8561095 9.98059259,21.0496039 C9.96049597,21.3379775 9.95888567,21.6300225 9.98052818,21.9182029 C9.99837037,22.1560773 9.93157488,22.2268663 9.68442512,22.221971 C8.82613205,22.205095 7.96732367,22.2154654 7.10864412,22.2154654 C4.91914332,22.2154654 2.7295781,22.2120515 0.540077295,22.2206184 C0.312444444,22.2214557 0.209320451,22.186029 0.236438003,21.9297327 C0.275729469,21.5592979 0.0893848631,21.0849018 0.308128824,20.840715 C0.510640902,20.614628 0.980979066,20.6279614 1.33363607,20.5369469 C1.64481159,20.4566248 1.95353945,20.3619388 2.26896618,20.304161 C2.46458615,20.2682834 2.49762963,20.1761739 2.49743639,19.9990403 C2.49331401,14.5037101 2.49279871,9.00844444 2.49891787,3.51311433 C2.49911111,3.29552979 2.43502093,3.24168116 2.22580998,3.24593237 C1.58207407,3.25894364 0.937758454,3.24226087 0.294086957,3.25546538 C0.0797874396,3.25984541 -0.0158003221,3.2192657 0.00210628019,2.97913688 C0.0243929147,2.68026409 0.0211723027,2.37765539 0.00249275362,2.07826731 C-0.00935909823,1.88747826 0.0661964573,1.8229372 0.237597424,1.77127858 C2.08397424,1.21475684 3.92333011,0.63420934 5.77505314,0.096431562 C6.28970692,-0.0530048309 6.84255717,0.0671884058 7.37756522,0.0499259259 C7.54007729,0.0446441224 7.49112399,0.176689211 7.49163929,0.261004831 C7.49518196,0.839362319 7.49350725,1.41778422 7.49350725,2.05044122" id="Fill-1" fill="#010101" mask="url(#mask-2)"></path>
                        </g>
                        <path d="M26.4701965,48.6442834 C27.6746409,46.6554911 28.8792142,44.6667633 30.0835942,42.6779066 C30.7997295,41.4952979 31.5188921,40.3144928 32.2280064,39.1276973 C32.3275878,38.9609984 32.4337391,38.8952979 32.6321932,38.8974879 C33.6409533,38.9086957 34.6500354,38.911401 35.6587311,38.8965217 C35.9098744,38.8928502 35.9779581,38.9569404 35.9773784,39.2118841 C35.9686184,42.7858615 35.9714525,46.3599678 35.9713881,49.9340097 C35.9713881,50.0502738 35.9713881,50.1665378 35.9713881,50.2895652 C36.1099388,50.2767472 36.131066,50.1655717 36.1829823,50.0961997 C37.3129662,48.584058 38.4372174,47.0675362 39.569649,45.5571981 C39.6920966,45.393913 39.74762,45.2346216 39.746847,45.0299195 C39.7401481,43.248277 39.7469758,41.4666345 39.7377649,39.6849919 C39.7366699,39.4699839 39.8025636,39.3273752 39.9617907,39.1902415 C41.5342222,37.8362319 43.8884895,38.4318519 44.4682641,40.3372303 C44.6913237,41.0703704 44.5807923,41.7814171 44.2890048,42.4712721 C43.9902609,43.1774879 43.5643027,43.8102093 43.098409,44.4128502 C40.6575717,47.5698229 38.2089404,50.7207407 35.7657842,53.8759098 C35.6805024,53.9859903 35.597475,54.0450564 35.4490048,54.0443478 C34.1825958,54.0382287 32.9159291,54.0315942 31.6497134,54.048277 C31.377314,54.0518196 31.4214364,53.9048953 31.4214364,53.7470853 C31.421694,50.7741385 31.4216296,47.8011272 31.421694,44.8281159 C31.421694,44.7859259 31.421694,44.7438003 31.421694,44.6961997 C31.282306,44.6906602 31.2799871,44.8156844 31.237153,44.8861514 C29.4319356,47.8523994 27.6281997,50.8196779 25.8323865,53.7916586 C25.718248,53.9806441 25.5970242,54.0486634 25.3776361,54.0462158 C24.3259775,54.0342995 23.273868,54.0297262 22.2224026,54.0483414 C21.9429179,54.0533011 21.8966699,53.9658937 21.8972496,53.708438 C21.9058808,49.8660548 21.8997617,46.0236715 21.9101965,42.1813527 C21.9109694,41.8936232 21.8381192,41.8073752 21.5482641,41.7881159 C20.7458164,41.7347826 19.9465894,41.6352657 19.1448502,41.5680837 C18.9647536,41.5530113 18.9125153,41.4933011 18.9201159,41.3173269 C18.9339646,40.9959098 18.930744,40.6733333 18.9210177,40.3515942 C18.9164444,40.1996457 18.9579259,40.126409 19.1180548,40.0905958 C20.8542222,39.7023188 22.5818229,39.2711433 24.3272657,38.9313043 C24.9481353,38.8104026 25.6111948,38.9071498 26.2549308,38.9018035 C26.3600515,38.9009662 26.4174428,38.9329791 26.4093269,39.048277 C26.4039807,39.1230596 26.4082963,39.1984863 26.4082963,39.273591 C26.4082963,42.3002576 26.4082963,45.3269243 26.4082963,48.353591 L26.4082963,48.6330757 C26.4289082,48.6368116 26.4495845,48.6405475 26.4701965,48.6442834" id="Fill-4" fill="#010101"></path>
                        <path d="M59.4452754,49.8240386 C59.4452754,50.7146023 59.4438583,51.5516393 59.4469501,52.3885475 C59.447401,52.5049404 59.4282705,52.5824283 59.3073043,52.6420741 C56.5928438,53.9793366 53.7569662,54.5564702 50.7284316,54.1265829 C47.5275942,53.6722834 45.3483349,50.8870338 44.8454042,48.4063253 C44.3212174,45.8206892 44.7465314,43.4245539 46.4767729,41.3633623 C47.8364509,39.7435233 49.6460483,38.9125411 51.7026023,38.5898357 C53.2695588,38.3439742 54.8260161,38.3829436 56.3449855,38.899723 C57.1160644,39.1620741 57.8170628,39.5471304 58.3879485,40.1396586 C58.9766763,40.7506731 59.3121997,41.4745378 59.3257907,42.3322512 C59.3484638,43.7602061 58.3755169,44.8224283 56.9485926,44.9620741 C55.9480773,45.0599163 55.0756135,44.7079034 54.2196393,44.2600451 C54.058029,44.1754718 54.1000258,44.0496103 54.0997037,43.9299324 C54.0969984,42.7707053 54.0878519,41.611285 54.105372,40.4522512 C54.1096876,40.166905 54.0193816,40.1412045 53.7806699,40.1998841 C52.2194461,40.5833301 51.147562,41.5227826 50.6382544,43.0445217 C50.0751626,44.7270338 50.0331014,46.4444573 50.5494944,48.1432657 C51.3784155,50.870029 53.652876,52.0347311 56.3744219,51.169095 C57.2968696,50.8756973 58.1601868,50.4440709 59.0283994,50.0244251 C59.1514911,49.9649082 59.2748406,49.9059066 59.4452754,49.8240386" id="Fill-6" fill="#010101"></path>
                        <path d="M50.8470403,14.877372 C50.8483929,12.4310596 50.8497456,9.98468277 50.8510338,7.53837037 C52.7482963,7.53663124 54.6456232,7.53469887 56.5428857,7.5332818 C59.5977649,7.53096296 62.6527085,7.5290306 65.7076522,7.5269694 C65.7075878,7.5269694 65.7081675,7.52651852 65.7081675,7.52651852 C65.7064283,11.2422029 65.7046892,14.9579517 65.7029501,18.6736361 L65.6983768,18.6880644 C63.8521932,18.6860676 62.0060741,18.6840709 60.1598905,18.6820741 L60.1611787,18.6779517 C60.161372,17.5512528 60.1526763,16.4244895 60.1681997,15.2979839 C60.1720644,15.0186924 60.1019839,14.9338615 59.8122576,14.9349565 C56.8399549,14.9463575 53.8677166,14.9425572 50.8954138,14.9430081 L50.8470403,14.877372 Z" id="Fill-8" fill="#D75604"></path>
                        <path d="M60.1606634,26.1253784 C59.3989887,26.1301449 58.637314,26.1383253 57.8756393,26.1389694 C55.6429823,26.1408374 53.4103253,26.143285 51.1776683,26.1343961 C50.934963,26.13343 50.8505829,26.1823833 50.8547697,26.4457005 C50.8712593,27.4758454 50.8510982,28.5066345 50.8670725,29.5368438 C50.8711948,29.8026731 50.7810177,29.8502738 50.5388921,29.8499517 C45.7837874,29.8434461 41.0286828,29.8431884 36.2735781,29.850789 C36.0308728,29.8511755 35.9667182,29.7882448 35.96981,29.547343 C35.9830145,28.5170692 35.9853333,27.4863446 35.9683285,26.4561997 C35.9637552,26.1807085 36.0489082,26.1260225 36.3105507,26.1264734 C41.0334493,26.1347826 45.7564122,26.1290499 50.4793108,26.1404509 C50.7877166,26.1412238 50.8400193,26.0457005 50.8392464,25.7660225 C50.8323543,23.4047987 50.8405346,21.0435749 50.8442061,18.682351 C50.8442061,18.6824155 50.8692625,18.6844767 50.8692625,18.6844767 L50.893868,18.6789372 C53.9829501,18.6786151 57.0720322,18.6782931 60.1611787,18.677971 C60.1611787,18.677971 60.1598905,18.6820934 60.1598905,18.682029 C60.1601481,21.163124 60.1604058,23.644219 60.1606634,26.1253784" id="Fill-10" fill="#AC1B02"></path>
                        <path d="M68.6103188,7.5058744 C68.9960193,7.51225121 69.3816554,7.52384541 69.7673559,7.52423188 C71.7949243,7.52609984 73.8225572,7.52558454 75.85019,7.52423188 C76.0174042,7.52410306 76.1536361,7.50387762 76.1528631,7.76152657 C76.1419775,11.3982415 76.1418486,15.0349565 76.1392077,18.6717359 C76.010963,18.6751498 75.8827826,18.6813977 75.7545378,18.6814622 C73.3688374,18.6823639 70.9830725,18.6824928 68.597372,18.6827504 C68.597372,18.6827504 68.6043929,18.6714783 68.6043285,18.6715427 C68.6037488,14.9617842 68.6032335,11.2520258 68.6026538,7.54226731 C68.6068406,7.53047987 68.6094171,7.51837037 68.6103188,7.5058744" id="Fill-12" fill="#F2BD26"></path>
                        <path d="M65.7076522,7.52691143 C62.6527085,7.52903704 59.5978293,7.5309694 56.5428857,7.53328824 C54.6456232,7.53470531 52.7482963,7.53663768 50.8510338,7.53837681 C50.8431755,6.03048631 50.8107762,4.5225314 50.8677166,3.01489855 C51.0283607,3.01786151 51.1890048,3.02333655 51.3497134,3.02340097 C56.1291014,3.02571981 60.9085539,3.02745894 65.687942,3.02932689 C65.6921288,3.15757166 65.6996651,3.28588084 65.6999871,3.4141256 C65.7032077,4.78507568 65.7052689,6.15596135 65.7076522,7.52691143" id="Fill-14" fill="#E2711C"></path>
                        <path d="M68.5973591,18.682789 C70.983124,18.682467 73.3688245,18.6823382 75.7545894,18.6815008 C75.8827697,18.6814364 76.0110145,18.675124 76.1391948,18.6717101 C76.1391948,18.6717101 76.1580032,18.6830467 76.1578744,18.6829179 C76.154525,21.0103253 76.151562,23.3379259 76.1471176,25.6655266 C76.1468599,25.8042705 76.1342995,25.9430789 76.1274718,26.0818229 C76.1095008,26.0961868 76.0915298,26.1105507 76.0735588,26.1249147 C73.9127858,26.1291014 71.7520129,26.1337391 69.5912399,26.1367021 C69.3027375,26.1370886 69.0141707,26.1288438 68.7256039,26.124657 C68.6836071,26.1104863 68.6416103,26.09638 68.5996779,26.0822738 L68.5973591,18.682789 Z" id="Fill-16" fill="#DA4E18"></path>
                        <g id="Group-20" transform="translate(50.821256, 0.002834)">
                            <mask id="mask-4" fill="white">
                                <use xlink:href="#path-3"></use>
                            </mask>
                            <g id="Clip-19"></g>
                            <path d="M14.8666924,3.02650564 C10.0873043,3.02463768 5.30785185,3.02289855 0.528399356,3.02057971 C0.367755233,3.0205153 0.207111111,3.01504026 0.0464669887,3.01207729 C0.0460161031,2.12164251 0.0508470209,1.23114332 0.0411851852,0.340772947 C0.0389307568,0.137165862 0.0889146538,0.0612882448 0.308109501,0.0615458937 C5.08240902,0.0672785829 9.85677295,0.067020934 14.6311369,0.0619323671 C14.8294622,0.0617391304 14.8870467,0.118486312 14.8849211,0.316360709 C14.8755813,1.19603865 14.8817649,2.07584541 14.8823446,2.95558776 C14.8771272,2.97922705 14.8719098,3.00286634 14.8666924,3.02650564" id="Fill-18" fill="#ED9B35" mask="url(#mask-4)"></path>
                        </g>
                        <path d="M60.1606634,26.1253784 C60.1604058,23.644219 60.1601481,21.163124 60.1598905,18.682029 C62.0060741,18.6840902 63.8521932,18.686087 65.6984412,18.6879549 C65.6987633,21.1669243 65.6990209,23.6459581 65.699343,26.1249919 C63.853095,26.1251208 62.0069114,26.1252496 60.1606634,26.1253784" id="Fill-21" fill="#C12303"></path>
                        <path d="M60.1611659,18.6779581 C57.0720837,18.6782802 53.9829372,18.6786023 50.8937907,18.6789243 C50.8773655,18.6567021 50.8610048,18.6345443 50.8447085,18.6123221 C50.8447085,18.5689726 50.8447085,18.5255588 50.8447729,18.4822093 C50.9129855,18.3979581 50.8874138,18.2979259 50.8876071,18.2041417 C50.8892818,17.2525797 50.8892818,16.3009533 50.8876071,15.3493913 C50.8874783,15.2555427 50.9124702,15.1555749 50.8449018,15.0711948 C50.8454171,15.0297134 50.8459324,14.9882319 50.8464477,14.9467504 C50.8465121,14.9467504 50.8711176,14.9476522 50.8711176,14.9476522 L50.895401,14.9430145 C53.8677037,14.9425636 56.8400064,14.9463639 59.8122448,14.934963 C60.101971,14.933868 60.1721159,15.0186989 60.1682512,15.2979903 C60.1526634,16.424496 60.1614235,17.5512593 60.1611659,18.6779581" id="Fill-23" fill="#C04303"></path>
                        <g id="Group-27" transform="translate(76.070853, 18.617971)">
                            <mask id="mask-6" fill="white">
                                <use xlink:href="#path-5"></use>
                            </mask>
                            <g id="Clip-26"></g>
                            <path d="M0.0566441224,7.46385829 C0.0634718196,7.32511433 0.0759677939,7.18630596 0.0762898551,7.047562 C0.0807342995,4.71996135 0.0836328502,2.39236071 0.0870466989,0.0649533011 C1.24447021,0.0649533011 2.40195813,0.0713301127 3.55918841,0.0594138486 C3.79770692,0.0569661836 3.86778744,0.120412238 3.86682126,0.363826087 C3.85767472,2.65722383 3.85909179,4.95068599 3.86533977,7.24408374 C3.86585507,7.44717552 3.81973591,7.52678905 3.60009018,7.52459903 C2.42147504,7.51274718 1.24273108,7.51513043 0.0639227053,7.51261836 C0.0616038647,7.49638647 0.0592206119,7.48009018 0.0566441224,7.46385829" id="Fill-25" fill="#E56AA1" mask="url(#mask-6)"></path>
                        </g>
                        <path d="M65.6993366,26.1250113 C65.6990145,23.6459775 65.6987568,21.1669436 65.6984348,18.6879742 C65.6983704,18.6881031 65.7029436,18.6736103 65.7029436,18.6736747 C66.6700934,18.6729662 67.6372432,18.6721932 68.6043929,18.6714847 C68.6043929,18.6714847 68.597372,18.6827568 68.597372,18.6827568 C68.5981449,21.1492947 68.5988535,23.6157681 68.5996264,26.082306 C68.5956973,26.097314 68.5954396,26.1123221 68.5988535,26.1274589 C67.6323478,26.1266216 66.6658422,26.1258486 65.6993366,26.1250113" id="Fill-28" fill="#D0390D"></path>
                        <path d="M65.6879549,3.02933977 C65.6931723,3.00570048 65.6983897,2.98206119 65.7036071,2.9584219 C66.5588084,2.96293076 67.4141385,2.97729469 68.2690821,2.96595813 C68.5313688,2.96247987 68.6160064,3.03114332 68.6136232,3.30334944 C68.601256,4.70412238 68.6093076,6.10502415 68.6102738,7.50586151 C68.6094364,7.51835749 68.6068599,7.53046699 68.6026087,7.54219002 C67.6377778,7.53697262 66.6730113,7.53175523 65.7081804,7.52653784 C65.7081804,7.52653784 65.7076006,7.52698873 65.7076651,7.52692432 C65.7052818,6.15597424 65.7032206,4.78508857 65.7,3.41413849 C65.6996779,3.28582931 65.6921417,3.15758454 65.6879549,3.02933977" id="Fill-30" fill="#F2BC87"></path>
                        <path d="M50.9794514,15.071182 C51.4716007,15.155562 51.2892711,15.2555298 51.2906772,15.3493784 C51.3023951,16.3010048 51.3028638,17.2525668 51.2902085,18.2041288 C51.2892711,18.297913 51.4748817,18.3979452 50.978514,18.4821965 C50.77228,17.3451916 50.7708739,16.2081868 50.9794514,15.071182" id="Fill-32" fill="#E2711C"></path>
                        <path d="M68.60569,26.4327802 C68.5924728,26.3152802 68.5934703,26.1987802 68.6086826,26.0822802 C68.7712793,26.1917802 68.933876,26.3012802 69.0964728,26.4112802 L68.60569,26.4327802 Z" id="Fill-34" fill="#E2711C"></path>
                        <path d="M50.8481868,18.6123349 C50.9751868,18.7663528 51.1016868,18.9199242 51.2291868,19.0739421 C51.2296868,19.0739421 51.0391868,19.1123349 51.0391868,19.1123349 C51.0391868,19.1123349 50.8441868,19.0976028 50.8441868,19.0976028 C50.8456868,18.9359957 50.8466868,18.7739421 50.8481868,18.6123349" id="Fill-36" fill="#E2711C"></path>
                        <path d="M76.4925201,26.0818293 C76.5125201,26.2078293 76.5310201,26.3343293 76.5490201,26.4603293 C76.5495201,26.4603293 76.3055201,26.5063293 76.3055201,26.5063293 C76.3055201,26.5063293 76.0735201,26.4168293 76.0735201,26.4163293 C76.2130201,26.3048293 76.3530201,26.1933293 76.4925201,26.0818293" id="Fill-38" fill="#E2711C"></path>
                        <path d="M51.2264477,15.3444005 L51.0384477,15.3773977 C51.0384477,15.3773977 50.8469477,15.3709816 50.8464477,15.3709816 C50.8479477,15.2064537 50.8494477,15.0419257 50.8509477,14.8773977 C50.9764477,15.0327598 51.1014477,15.1885801 51.2264477,15.3444005" id="Fill-40" fill="#E2711C"></path>
                        <path d="M65.7081868,7.52653784 C66.6730177,7.53175523 67.6377842,7.53697262 68.6026151,7.54219002 C68.6031948,11.2520129 68.6037746,14.9617713 68.6043543,18.6715298 C67.6372045,18.6722383 66.6700548,18.6729469 65.702905,18.6736554 C65.7047085,14.9579066 65.7064477,11.2422222 65.7081868,7.52653784" id="Fill-42" fill="#E78C14"></path>
                    </g>
                </g>
            </g>
        </g>
    </g>
</svg>

<svg height="61" width="80" xmlns="http://www.w3.org/2000/svg"><mask id="a" fill="#fff"><path d="M0 .02h18.42v22.202H0z" fill-rule="evenodd"/></mask><mask id="b" fill="#fff"><path d="M.041.062h14.844v2.965H.041z" fill-rule="evenodd"/></mask><mask id="c" fill="#fff"><path d="M.057.06h3.81v7.465H.057z" fill-rule="evenodd"/></mask><g fill="none" fill-rule="evenodd"><path d="M7.493 8.515c0 1.588.007 3.176-.007 4.764-.002.276.083.346.342.328.352-.026.709.003 1.061-.026 1.756-.141 3.067-.95 3.696-2.639.631-1.698.673-3.446.157-5.182-.38-1.275-1.224-2.117-2.556-2.41-.847-.186-1.684-.067-2.521.09-.213.04-.172.178-.172.31zm0-6.465c.623-.353 1.184-.684 1.758-.992.95-.511 1.935-.905 3.04-.952 1.952-.083 3.475.699 4.627 2.241 2.014 2.697 2.128 7.664-.435 10.523-1.411 1.573-3.211 2.346-5.276 2.586-1.138.132-2.273.024-3.408-.037-.236-.012-.314.024-.312.28.013 1.427.012 2.855.001 4.282-.002.22.075.288.279.33.661.135 1.317.299 1.977.44.175.039.25.105.237.299-.02.288-.022.58 0 .868.017.238-.05.309-.297.304-.858-.017-1.717-.007-2.575-.007-2.19 0-4.38-.003-6.569.006-.228 0-.33-.035-.304-.291.04-.37-.147-.845.072-1.09.203-.225.673-.212 1.026-.303.31-.08.62-.175.935-.233.196-.036.229-.128.228-.305-.004-5.495-.004-10.99.002-16.486 0-.217-.064-.271-.273-.267-.644.013-1.288-.004-1.932.01-.214.004-.31-.037-.292-.277.022-.299.02-.601 0-.9-.011-.192.064-.256.236-.308C2.084 1.215 3.923.634 5.775.096 6.29-.053 6.843.067 7.378.05c.162-.005.113.127.114.211.003.578.002 1.157.002 1.79" fill="#010101" mask="url(#a)" transform="translate(0 38.521)"/><path d="M26.47 48.644l3.614-5.966c.716-1.183 1.435-2.364 2.144-3.55.1-.167.206-.233.404-.23 1.009.01 2.018.013 3.027-.001.25-.004.319.06.318.315-.008 3.574-.006 7.148-.006 10.722v.356c.139-.013.16-.124.212-.194 1.13-1.512 2.254-3.028 3.387-4.539a.818.818 0 0 0 .177-.527c-.007-1.782 0-3.563-.01-5.345a.585.585 0 0 1 .225-.495c1.572-1.354 3.926-.758 4.506 1.147.223.733.113 1.444-.179 2.134-.299.706-.725 1.34-1.19 1.942-2.441 3.157-4.89 6.308-7.333 9.463-.085.11-.169.17-.317.168a218.803 218.803 0 0 0-3.8.004c-.272.004-.228-.143-.228-.3v-9.052c-.139-.005-.141.12-.184.19a3284.373 3284.373 0 0 0-5.405 8.906c-.114.189-.235.257-.454.254a108.696 108.696 0 0 0-3.156.002c-.28.005-.325-.082-.325-.34.009-3.842.003-7.684.013-11.527.001-.287-.072-.374-.362-.393-.802-.053-1.601-.153-2.403-.22-.18-.015-.232-.075-.225-.25.014-.322.01-.645.001-.966-.005-.152.037-.226.197-.261 1.736-.389 3.464-.82 5.21-1.16.62-.12 1.283-.024 1.927-.03.105 0 .162.032.154.147-.005.075 0 .15 0 .226v9.36zm32.975 1.18c0 .89-.001 1.728.002 2.565 0 .116-.019.193-.14.253-2.714 1.337-5.55 1.914-8.579 1.485-3.2-.455-5.38-3.24-5.883-5.72-.524-2.586-.098-4.982 1.632-7.044 1.36-1.62 3.169-2.45 5.226-2.773 1.567-.246 3.123-.207 4.642.31.771.262 1.472.647 2.043 1.24.589.61.924 1.335.938 2.192.022 1.428-.95 2.49-2.377 2.63-1 .098-1.873-.254-2.73-.702-.161-.085-.119-.21-.12-.33-.002-1.16-.011-2.319.006-3.478.005-.285-.086-.31-.324-.252-1.562.383-2.633 1.323-3.143 2.845-.563 1.682-.605 3.4-.089 5.098.83 2.727 3.104 3.892 5.825 3.026.923-.293 1.786-.725 2.654-1.145z" fill="#010101"/><path d="M50.847 14.877l.004-7.339 5.692-.005 9.165-.006-.005 11.147-.005.014-5.538-.006.001-.004c0-1.127-.008-2.254.007-3.38.004-.28-.066-.364-.356-.363-2.972.011-5.944.008-8.917.008z" fill="#d75604"/><path d="M60.16 26.125c-.761.005-1.523.013-2.284.014-2.233.002-4.466.004-6.698-.005-.243 0-.327.048-.323.312.016 1.03-.004 2.06.012 3.09.004.267-.086.314-.328.314-4.755-.007-9.51-.007-14.265 0-.243.001-.307-.062-.304-.303.013-1.03.015-2.06-.002-3.09-.004-.276.08-.331.343-.33 4.722.008 9.445.002 14.168.013.309.001.361-.094.36-.374-.007-2.361.002-4.722.005-7.084l.025.002.025-.005 9.267-.001-.001.004z" fill="#ac1b02"/><path d="M68.61 7.506c.386.006.772.018 1.157.018 2.028.002 4.056.002 6.083 0 .167 0 .304-.02.303.238-.011 3.636-.011 7.273-.014 10.91-.128.003-.256.01-.384.01h-7.158l.007-.01-.001-11.13a.138.138 0 0 0 .007-.036" fill="#f2bd26"/><path d="M65.708 7.527l-9.165.006-5.692.005c-.008-1.508-.04-3.015.017-4.523.16.003.321.008.482.008l14.338.006c.004.129.012.257.012.385z" fill="#e2711c"/><path d="M68.597 18.683l7.158-.001c.128 0 .256-.007.384-.01l.019.01-.01 6.984c-.001.138-.014.277-.02.416l-.054.043-6.483.012c-.288 0-.577-.008-.865-.012l-.126-.043-.003-7.4z" fill="#da4e18"/><path d="M14.867 3.027L.528 3.02c-.16 0-.32-.006-.482-.009 0-.89.005-1.78-.005-2.671C.04.137.09.06.308.06c4.774.006 9.549.006 14.323 0 .198 0 .256.057.254.255-.01.88-.003 1.76-.003 2.64l-.015.07" fill="#ed9b35" mask="url(#b)" transform="translate(50.821 .003)"/><path d="M60.16 26.125v-7.443l5.538.006.001 7.437h-5.538" fill="#c12303"/><path d="M60.161 18.678h-9.267a21.988 21.988 0 0 1-.05-.066v-.13c.069-.084.043-.184.044-.278V15.35c0-.093.024-.193-.043-.278l.001-.124h.025l.024-.004c2.973 0 5.945.003 8.917-.008.29-.001.36.084.356.363-.015 1.126-.007 2.253-.007 3.38" fill="#c04303"/><path d="M.057 7.464c.006-.139.019-.278.02-.416L.086.065c1.157 0 2.315.006 3.472-.006.239-.002.309.061.308.305-.01 2.293-.008 4.587-.002 6.88 0 .203-.045.283-.265.28-1.179-.011-2.357-.009-3.536-.011a3.18 3.18 0 0 0-.007-.05" fill="#e56aa1" mask="url(#c)" transform="translate(76.07 18.618)"/><path d="M65.7 26.125l-.002-7.437.005-.014 2.901-.003-.007.012.003 7.4a.094.094 0 0 0-.001.044l-2.9-.002" fill="#d0390d"/><path d="M65.688 3.03l.016-.072c.855.005 1.71.02 2.565.008.262-.004.347.065.345.337-.013 1.401-.005 2.802-.004 4.203a.132.132 0 0 1-.007.036l-2.895-.015-.008-4.113c0-.128-.008-.256-.012-.385" fill="#f2bc87"/><path d="M50.98 15.071c.492.085.31.185.31.278.012.952.013 1.904 0 2.855 0 .094.185.194-.311.278a9.427 9.427 0 0 1 0-3.41m17.627 11.36a1.445 1.445 0 0 1 .003-.35l.487.33zm-17.758-7.82l.381.462-.19.038-.195-.014zm25.645 7.47c.02.126.038.252.056.378l-.243.046-.232-.09z" fill="#e2711c"/><path d="M51.226 15.344l-.188.033-.192-.006.005-.494z" fill="#e2711c"/><path d="M65.708 7.527l2.895.015.001 11.13c-.967 0-1.934 0-2.901.002z" fill="#e78c14"/></g></svg>
